X:187
T:Sporting Paddy (reel)  
B:CRE1.133 (Padraic Spoirtiuil)
F:file ID: cre.1/187sport_p
S:Sonny Brogan
M:C
L:1/8
Q:180
R:reel
K:Am
EAAB GABG|EAAB G2ED|EAAB GABd|edge dBAG|
EAAB GABG|EAAB G2ED|EAAB GABd|edge d2e^f||
gee2 gede|gee2 a2ba|gee2 ged2|e^fge d2ef|
gee2 gede|gee2 a2ga|bgab ged2|e^fge dBAG||A8|

%%%

